!!!COM: Ce/sar Franck
!!!CNT: Francais
!!!TXO: Francais
!!!OTL: Chant (listed as Lied in the table of contents)
!!!LYR: Pate/
!!!OPR:
!!!OPS: FWV 83
!!!ONM:
!!!ENC: Ben Fuhrman
!!!YOR: CD Sheet Music French Art Songs, The Ultimate Collectio
!!!YOR: CD Sheet Music, LLC 200
!!!ODT: 1873
!!NB: Vocal melody and text encoded
!!NB: First instance of melodic material only encoded
!!created: 2/15/10 4:31PM
!!proofed and posted: 2/15/10 4:32PM
**kern	**silbe
*clefG2	*
*k[f#c#g#]	*
*M6/8	*
*MM[Andantino]	*
=3	=3
4r	.
8r	.
4r	.
{8f#	{Pour
=4	=4
4a	moi
8b#	sa
4cc#	main
8f#	cueil-
=5	=5
4a	-lait
8b#	des
4cc#	ro-
8f#	-ses
=6	=6
4.a	A\
4bn	ce
8bn	buis-
=7	=7
4a}	-son,}
8r	.
4r	.
{8a	{Comme
=8	=8
4ccn	elle
8dd#	en-
4ee	-core
8a	a\
=9	=9
4ccn	peine
8dd#	e\-
4dd#	-clo-
8a	-ses,
=10	=10
4.cc#	Che\
4cc#	-re
8cc#	mois-
=11	=11
4cc#}	-son.}
8r	.
4r	.
{8cc#	{La
=12	=12
4cc#	gerbe,
8g#	he/-
4g#	-las!
8cc#	en
=13	=13
4b	est
(16a	fa-
16g#)	|
4f#	-ne/-
8f#	-e
=14	=14
4.a	Comme
4f#	elle
8f#	aus-
=15	=15
4.a}	-si;}
4r	.
{8cc#	{La
=16	=16
4ff#	mois-
8cc#	-son-
4cc#	-neu-
8ff#	-se
=17	=17
4ee	mois-
(16dd	son-
16cc)	|
4b	-ne/-
8b	-e
=18	=18
4.dd	Re-
4dd	-pose
8dd	i-
=19	=19
2.cc#}	-ci.}
=20	=20
2.r	.
=21	=21
4r	.
8r	.
4r	.
{8f#	{Mais
=22	=22
4a	sur
8b#	la
4cc#	tom-
8f#	-be
=23	=23
4a	qui
8b#	vous
4cc#	cou-
8f#	-vre,
=24	=24
4.a	O
4bn	mes
8b	a-
=25	=25
4.a}	-mours!}
4r	.
{8a	{Une
=26	=26
4ccn	e/-
8dd#	-glan-
4ee	-ti-
8a	-ne,
=27	=27
4ccn	qui
8dd#	s'entr'-
4ee	-ou-
8a	-vre,
=28	=28
4.cc#	Sou-
4cc#	-rit
8cc#	tou-
=29	=29
4.cc#}	-jours.}
4r	.
{8cc#	{Et
=30	=30
4cc#	sous
8g#	le
4g#	buis-
8cc#	-son
=31	=31
4b	qui
(16a	sur-
16g#)	|
4f#	-plom-
8f#	-be,
=32	=32
4.a	Quand
4f#	je
8f#	re-
=33	=33
4.a}	-viens.}
4r	.
{8cc#	{U-
=34	=34
4ff#	-ne
8cc#	voix
4cc#	me
8ff#	dit
=35	=35
4ee	sous
(16dd	la
16cc#)	|
4b	tom-
8b	-be:
=36	=36
4.dd	"Je
4dd	me
8dd	sou-
=37	=37
2.cc#}	viens."}
==	==
*-	*-
